X:1
T:Earnest Toilers
T:Earnest Toilers
T:Asa Hull
T:William Edward Penney, 1888
T:Public Domain Courtesy of the Cyber Hymnal™
T:Public Domain Courtesy of the Cyber Hymnal™
C:Asa Hull
Z:Public Domain
Z:Courtesy of the Cyber Hymnal™
%%score ( 1 2 ) 3
L:1/8
Q:1/4=90
M:4/4
K:Bb
V:1 treble 
V:2 treble 
V:3 bass 
V:1
 [DF][DF][B,D][CE] [DF]2 [FB]2 | [EB][EA][EG][EA] [DB]4 | [Fd][Fd][Ec][DB] [FA]2 [EG]2 | %3
w: 1.~We are ear- nest toil- ers|on life’s fruit- ful field,|Trust- ing to the Mas- ter|
w: 2.~Toil- ing not for rich- es,|not for world- ly fame,|But for life e- ter- nal|
w: 3.~Truth, our shin- ing sic- kle,|learn- ing to use well,|Reap- ing in life’s har- vest,|
w: 4.~And in life’s de- clin- ing,|all our work com- plete,|We will lay our sic- kles|
 [DF][EG][DF][CE] [B,D]4 | [DF][DF][B,D][CE] [DF]2 [Fd]2 | [Ec][EG][Gc][GB] [FA]4 | %6
w: for the har- vest yield;|Each one has his mis- sion,|each his work to do;|
w: thro’ our Sav- ior’s name;|Fight- ing strong temp- ta- tion,|seek- ing help a- bove,|
w: who the good can tell?|Reap- ing in the sha- dow,|reap- ing in the sun,|
w: at our Mas- ter’s feet;|And each pa- tient toil- er,|all life’s tri- als o’er,|
 [Ae][Ae][Bd][Fc] [Ff]2 ([DB][Ec]) | [Fd][Fd][Ed][Ec] [DB]4 ||"^Refrain" [Fd]2 [FB]2 [Ff]2 [Fd]2 | %9
w: May we all prove faith- ful *|till our work is through.||
w: Striv- ing to bring o- thers *|to the God of love.|Toil- ing! toil- ing|
w: An- y- where He calls us, *|till our work is done.||
w: Will re- ceive his por- tion— *|life for ev- er- more.||
 [Fc]>[Fd] [Fe][Fd] [Fc]4 | [Ae]2 [Fc]2 (A>G) [EF]2 | [DF][EG][DF][B,D] [DF]4 | %12
w: |||
w: in the days of youth!|Toil- ing! toil- * ing|for the cause of truth!|
w: |||
w: |||
 [DF][DF][B,D][CE] [DF]2 [Fd]2 | [Ec][EG][Gc][GB] [FA]4 | [Ae][Ae][Bd][Fc] [Ff]2 ([DB][Ec]) | %15
w: |||
w: Toil- ing in the sha- dow,|toil- ing in the sun,|An- y- where He calls you, *|
w: |||
w: |||
 [Fd][Fd][Ed][Ec] [DB]4 |] %16
w: |
w: till your work is done!|
w: |
w: |
V:2
 x8 | x8 | x8 | x8 | x8 | x8 | x8 | x8 || x8 | x8 | x4 E2 x2 | x8 | x8 | x8 | x8 | x8 |] %16
V:3
 [B,,B,][B,,B,][B,,B,][B,,B,] [B,,B,]2 [B,,D]2 | [F,C][F,C][F,C][F,C] [B,,B,]4 | %2
w: ~ ~ ~ ~ ~ ~|~ ~ ~ ~ ~|
 [B,,B,][B,,B,][B,,B,][B,,B,] [E,B,]2 [E,B,]2 | [F,B,][F,B,][F,B,][F,A,] [B,,B,]4 | %4
w: ~ ~ ~ ~ ~ ~|~ ~ ~ ~ ~|
 [B,,B,][B,,B,][B,,F,][B,,B,] [B,,B,]2 [B,,B,]2 | [E,G,][E,C][E,C][E,C] [F,C]4 | %6
w: ~ ~ ~ ~ ~ ~|~ ~ ~ ~ ~|
 [F,C][F,C][F,B,][E,A,] [D,B,]2 [G,B,]2 | [F,B,][F,B,][F,A,][F,A,] [B,,B,]4 || %8
w: ~ ~ ~ ~ ~ ~|~ ~ ~ ~ ~|
 [B,,B,][B,,B,][B,,D][B,,D] [B,,D][B,,D] [B,,B,]2 | [F,A,]>[F,B,] [F,C][F,B,] [F,A,]4 | %10
w: Toil- ing, toil- ing, toil- ing on,|~ ~ ~ ~ ~|
 [F,C][F,C][F,A,][F,A,] [F,C][F,C] [F,C]2 | [B,,B,][B,,B,][B,,B,][B,,F,] [B,,B,]4 | %12
w: Toil- ing, toil- ing, toil- ing on,||
 [B,,B,][B,,B,][B,,F,][B,,B,] [B,,B,]2 [B,,B,]2 | [E,G,][E,C][E,C][E,C] [F,C]4 | %14
w: ||
 [F,C][F,C][F,B,][E,A,] [D,B,]2 [G,B,]2 | [F,B,][F,B,][F,A,][F,A,] [B,,B,]4 |] %16
w: ||

